!!!!SEGMENT: pl-kk--kk-i-386--001-006_anonim--missa-prima-sanctus.krn
!!!cenid: 18xx:4504
!!!COM: Anonim
!!!COM-rismID: pe30004985
!!!CDT:
!!!CNT:
!!!OPR: [Missa prima]
!!!OTL: Sanctus
!!!OMV: 006
!!!PDT:
!!!AGN: Sacred
!!!YEC: Copyright 2022 Narodowy Instytut Fryderyka Chopina (https://polishscores.org)
!!!YEM: License CC-BY-4.0 (https://creativecommons.org/licenses/by/4.0)
!!!SMS-siglum: PL-Kk
!!!SMS-shelfmark: Kk.I.386
!!!SMS-variant:
!!!SMS-altvar:
!!!SMS-shelfwork: 001-006 M
!!!NIFC-rismSourceID: 1001218240
!!!NIFC-rismChildID: 1001218242
!!!NIFC-islandoraID: pl-kk:16060
!!!URL-pdf-islandora: https://repozytorium.nifc.pl/islandora/object/pl-kk%3A16060/datastream/PDF/view
!!!URL-scan: https://polish.musicsources.pl/pl/lokalizacje/galeria/rekopisy/7134/3 @EN{Scan on Polish Music Sources Website} @PL{Skany w portalu Dziedzictwo Muzyki Polskiej w otwartym dostępie}
!!!IIIF:
!!!ONB-nifc: UWAGA: Części Missy Prima: Rorate, Kyrie, Gloria, Graduale, Offertorium, Sanctus, Benedicuts, Agnus, Dona. Zakres skanów: S – 3-6, A – 12-15, T – 22-25, B – 32-25
!!!AIN: 1 alto 1 bass 1 soprn 1 tenor
!!!key:
**kern	**text	**kern	**text	**kern	**text	**kern	**text
*part4	*part4	*part3	*part3	*part2	*part2	*part1	*part1
*staff4	*staff4	*staff3	*staff3	*staff2	*staff2	*staff1	*staff1
*I"Basso.	*	*I"Tenore.	*	*I"Alto.	*	*I"Soprano.	*
*I'B	*	*I'T	*	*I'A	*	*I'S	*
*Ibass	*	*Itenor	*	*Ialto	*	*Isoprn	*
*ICvox	*	*ICvox	*	*ICvox	*	*ICvox	*
*clefF4	*	*clefC4	*	*clefC3	*	*clefC1	*
*k[]	*	*k[]	*	*k[]	*	*k[]	*
*C:	*	*C:	*	*C:	*	*C:	*
*M4/4	*	*M4/4	*	*M4/4	*	*M4/4	*
*met(c)	*	*met(c)	*	*met(c)	*	*met(c)	*
=1	=1	=1	=1	=1	=1	=1	=1
*2\right	*	*2\right	*	*2\right	*	*2\right	*
2c\	San-	2c\	San-	2cc\	San-	2cc\	San-
2E\	-ctus	2E/	-ctus	2e\	-ctus	2e/	-ctus
=2	=2	=2	=2	=2	=2	=2	=2
(4F\	san-	4F/	san-	(4f\	san-	(4a\	san-
4E\)	.	4E/	.	4e\)	.	4g\)	.
4E\	-ctus	4G/	-ctus	(4g\	-ctus	(4cc\	-ctus
4G\	.	4B/	.	4g\)	.	4dd\)	.
=3	=3	=3	=3	=3	=3	=3	=3
4c\	Do-	4B\	Do-	2g\	Do-	(4dd\	Do-
4C/	.	4c\	.	.	.	4ee\)	.
4C/	-mi-	4c\	-mi-	4g\	-mi-	4ee\	-mi-
4C/	-nus	4G/	-nus	4e\	-nus	4cc\	-nus
=4	=4	=4	=4	=4	=4	=4	=4
4A\	De-	2c\	De-	(4a\	De-	(4ff\	De-
4G\	.	.	.	4g\)	.	4ee\	.
4F\	.	2c\	-us	2g\	-us	4dd\)	.
4E\	-us	.	.	.	.	4cc\	-us
!	!	!LO:LB:g=original	!	!	!	!LO:LB:g=original	!
=5	=5	=5	=5	=5	=5	=5	=5
2BB/	sa-	2d\	sa-	2g\	sa-	2ff\	sa-
!	!	!	!	!LO:LB:g=original	!	!	!
2C/	-ba-	2c\	-ba-	2g\	-ba-	2ee\	-ba-
!LO:LB:g=original	!	!	!	!	!	!	!
=6	=6	=6	=6	=6	=6	=6	=6
2GG/	-ot,	2B\	-ot,	2g\	-ot.	2dd\	-ot,
4r	.	4r	.	4r	.	4r	.
4G\	san-	(4G/	san-	[4g\	san-	(4g\	san-
=7	=7	=7	=7	=7	=7	=7	=7
4F\	.	4d\)	.	4g\]	.	4b\)	.
4E\	-ctus	4e\	-ctus	4g\	-ctus	4cc\	-ctus
4D/	san-	4B\	san-	4g\	san-	4dd\	san-
4C/	-ctus	4c\	-ctus	4g\	-ctus	4ee\	-ctus
=8	=8	=8	=8	=8	=8	=8	=8
2F\	Do-	1A	Do-	1a	Do-	(2dd\	Do-
2F#X\	.	.	.	.	.	8dd\L	.
.	.	.	.	.	.	8cc#X\J	.
.	.	.	.	.	.	8ee\L	.
.	.	.	.	.	.	8dd\J)	.
=9	=9	=9	=9	=9	=9	=9	=9
4G\	-mi-	4d\	-mi-	4b\	-mi-	4dd\	-mi-
4G\	-nus	4d\	-nus	4b\	-nus	4g\	-nus
4GG/	De-	4d\	De-	4b\	De-	4g\	De-
4GG/	-us	4d\	-us	4g\	-us	4dd\	-us
=10	=10	=10	=10	=10	=10	=10	=10
2C/	De-	2e\	De-	2g\	De-	(4gg\	De-
.	.	.	.	.	.	4a\	.
!	!	!	!	!	!	!LO:LB:g=original	!
4D\	.	4d\	.	2g\	-us	4b\	.
4E\	-us	4c\	-us	.	.	4cc\)	-us
=11	=11	=11	=11	=11	=11	=11	=11
2D\	sa-	2d\	sa-	2g\	sa-	2b\	sa-
2D\	-ba-	2c\	-ba-	2f#X\	-ba-	2a\	-ba-
!	!	!LO:LB:g=original	!	!LO:LB:g=original	!	!	!
=12	=12	=12	=12	=12	=12	=12	=12
2GG/	-ot,	2B\	-ot.	2d\	-ot,	2g\	-ot,
4r	.	4r	.	4r	.	4r	.
4G\	ple-	(4G/	ple-	4g\	ple-	4g\	ple-
!LO:LB:g=original	!	!	!	!	!	!	!
=13	=13	=13	=13	=13	=13	=13	=13
2G\	.	4B\	.	2g\	.	(4ff\	.
.	.	4c\)	.	.	.	4ee\)	.
4G\	-ni-	4d\	-ni	4g\	-ni	4dd\	-ni
4G\	-sunt	4e\	sunt	4g\	sunt	4cc\	sunt
=14	=14	=14	=14	=14	=14	=14	=14
2G\	ce-	2f\	ce-	2g\	cel-	2b\	ce-
4G\	-li	4e\	-li	4g\	-li	4cc\	-li
4G\	et	4c\	et	4g\	et	4ee\	et
=15	=15	=15	=15	=15	=15	=15	=15
4G\	ter-	4c\	ter-	4g\	ter-	4ee\	ter-
4GG/	-ra	4B\	-ra	4g\	-ra,	4dd\	-ra
4r	.	4r	.	4r	.	4r	.
4G\	glo-	4B\	glo-	4g\	glo-	4dd\	glo-
!	!	!	!	!	!	!LO:LB:g=original	!
=16	=16	=16	=16	=16	=16	=16	=16
2G\	.	2d\	.	2b\	.	2gg\	-ri-
4F\	-ri-	4d\	-ri-	4g\	-ri-	2b\	-a
4F\	-a	4d\	-a	4g\	-a	.	.
=17	=17	=17	=17	=17	=17	=17	=17
2E\	glo-	2c\	glo-	2g\	glo-	2cc\	glo-
4D\	-ri-	4B\	-ri-	4g\	-ri-	4dd\	-ri-
4C/	-a	4c\	-a	4g\	-a	4ee\	-a
!	!	!	!	!LO:LB:g=original	!	!	!
=18	=18	=18	=18	=18	=18	=18	=18
4G\	tu-	4c\	tu-	4g\	tu-	4ee\	tu-
4GG/	-a	4B\	-a	4g\	-a,	4dd\	-a
!	!	!LO:LB:g=original	!	!	!	!	!
4r	.	4r	.	4r	.	4r	.
4G\	glo-	4G/	glo-	4g\	glo-	4dd\	glo-
!LO:LB:g=original	!	!	!	!	!	!	!
=19	=19	=19	=19	=19	=19	=19	=19
2c\	.	2c\	.	2g\	.	2ee\	.
4e\	-ri-	4c\	-ri-	4g\	-ri-	4ee\	-ri-
4e\	-a	4c\	-a	4g\	-a	4ee\	-a
=20	=20	=20	=20	=20	=20	=20	=20
2A\	glo-	2c\	glo-	2a\	glo-	2ee\	glo-
4c\	-ri-	4c\	-ri-	4a\	-ri-	4ee\	-ri-
4c\	-a	4c\	-a	4a\	-a	4ee\	-a
=21	=21	=21	=21	=21	=21	=21	=21
2F\	tu-	2c\	tu-	2a\	tu-	2dd\	tu-
2G\	.	2B\	.	2g\	.	2gg\	.
!	!	!	!	!	!	!LO:LB:g=original	!
=22	=22	=22	=22	=22	=22	=22	=22
2C/	-a,	2c\	-a,	2g\	-a	2cc\	-a
4r	.	4r	.	4r	.	4r	.
4G\	ple-	4G/	ple-	4g\	ple-	4g\	ple-
=23	=23	=23	=23	=23	=23	=23	=23
2G\	.	4B\	.	2g\	.	4ff\	.
.	.	4c\	.	.	.	4ee\	.
4G\	-ni	4d\	-ni	4g\	-ni-	4dd\	-ni
4G\	sunt	4e\	sunt	4g\	-sunt	4cc\	sunt
!	!	!	!	!LO:LB:g=original	!	!	!
=24	=24	=24	=24	=24	=24	=24	=24
2G\	cel-	2f\	cel-	2g\	ce-	2b\	ce-
4G\	-li	4e\	-li	4g\	-li	4cc\	-li
4G\	et	4c\	et	4g\	et	4ee\	et
!LO:LB:g=original	!	!LO:LB:g=original	!	!	!	!	!
=25	=25	=25	=25	=25	=25	=25	=25
4G\	ter-	4c\	ter-	4g\	ter-	4ee\	ter-
4GG/	-ra	4B\	-ra	4g\	-ra	4dd\	-ra
4r	.	4r	.	4r	.	4r	.
4G\	glo-	4B\	glo-	4g\	glo-	4dd\	glo-
=26	=26	=26	=26	=26	=26	=26	=26
2G\	.	2d\	.	2b\	.	2gg\	.
4F\	-ri-	4d\	-ri-	4g\	-ri-	2b\	.
4F\	-a	4d\	-a	4g\	-a	.	.
=27	=27	=27	=27	=27	=27	=27	=27
2E\	glo-	2c\	glo-	2g\	glo-	2cc\	.
4D\	-ri-	4B\	-ri-	4g\	-ri-	4dd\	-ri-
4C\	-a	4c\	-a	4g\	-a	4ee\	-a
!	!	!	!	!	!	!LO:LB:g=original	!
=28	=28	=28	=28	=28	=28	=28	=28
4G\	tu-	4c\	tu-	4g\	tu-	4ee\	tu-
4GG/	-a	4B\	-a,	4g\	-a	4dd\	-a
4r	.	4r	.	4r	.	4r	.
4G\	o-	4G/	o-	4g\	o-	4dd\	o-
=29	=29	=29	=29	=29	=29	=29	=29
2c\	-san-	2c\	-san-	2g\	-san-	2ee\	-san-
4e\	-na	2c\	-na	2g\	-na	2ee\	-na
4e\	o-	.	.	.	.	.	.
!	!	!	!	!LO:LB:g=original	!	!	!
=30	=30	=30	=30	=30	=30	=30	=30
2A\	-san-	2c\	in	2a\	in	2ee\	in
4c\	.	2c\	ex-	2a\	ex-	2ee\	ex-
4c\	-na	.	.	.	.	.	.
!LO:LB:g=original	!	!	!	!	!	!	!
=31	=31	=31	=31	=31	=31	=31	=31
2F\	in ex-	2c\	-cel-	2a\	-cel-	2dd\	-cel-
2G\	-cel-	2B\	.	2g\	.	2gg\	.
!	!	!LO:LB:g=original	!	!	!	!	!
=32	=32	=32	=32	=32	=32	=32	=32
2C/	-sis	2c\	-sis	2g\	-sis	2cc\	-sis
4r	.	4r	.	4r	.	4r	.
4G\	o-	4G/	o-	4g\	o-	4g\	o-
=33	=33	=33	=33	=33	=33	=33	=33
2c\	-san-	2c\	-san-	2g\	-san-	2ee\	-san-
2e\	-na	2c\	-na	2g\	-na	2ee\	-na
=34	=34	=34	=34	=34	=34	=34	=34
2A\	in	2c\	in	2a\	in	2ee\	in
2c\	ex-	2c\	ex-	2a\	ex-	2ee\	ex-
=35	=35	=35	=35	=35	=35	=35	=35
2F\	-cel-	2c\	-cel-	2a\	-cel-	2dd\	-cel-
2G\	.	2d\	.	2b\	.	2gg\	.
=36	=36	=36	=36	=36	=36	=36	=36
2C/	-sis.	2e\	-sis.	2g\	-sis.	2cc\	-sis.
2r	.	2r	.	2r	.	2r	.
==	==	==	==	==	==	==	==
*-	*-	*-	*-	*-	*-	*-	*-
!!!system-decoration: [(s1,s2,s3,s4)]
!!!ENC: Anastazja Marusiak
!!!END: 2023-10-31
!!!ENC: Leszek Kubiak
!!!END: 2024-06-23
